coreui/free/cil-tv.svg

<svg xmlns="http://www.w3.org/2000/svg" viewBox="0 0 512 512">
  <path fill="var(--ci-primary-color, currentColor)" d="M472,88.5H302.627l72.5-72.5H329.873l-72.5,72.5h-2.246L182.627,16H137.373l72.5,72.5H40a24.028,24.028,0,0,0-24,24v296a24.028,24.028,0,0,0,24,24H152V496H376V432.5h96a24.028,24.028,0,0,0,24-24v-296A24.028,24.028,0,0,0,472,88.5ZM344,464H184V432.5H344Zm120-63.5H48v-280H464Z" class="ci-primary"/>
</svg>

<svg viewBox="0 0 512 512" xmlns="http://www.w3.org/2000/svg"><path d="M472 88.5H302.627l72.5-72.5h-45.26l-72.5 72.5h-2.25L182.61 16h-45.26l72.5 72.5H39.98v0c-13.25.01-23.99 10.75-24 24v296 0c.01 13.24 10.75 23.98 24 24h112V496h224v-63.5h96 -.001c13.24-.02 23.98-10.76 24-24v-296 0c-.02-13.25-10.76-23.99-24-24ZM344 464H184v-31.5h160Zm120-63.5H48v-280h416Z"/></svg>
